!!!OTL: Nasz zbawiciel pan
**kern
*staff1
=1-
*clefF3
*k[b-]
*met(c|)
*M2/2
1D
1F
2F\
2E/
1D
=2
!LO:TX:Y=127:t=P
1D
2A\
1B-
2F\
1G
=3
0A
=4
1D
1B-
=5
1A
1F
=6
1C
2C/
1F
2BB-/
1C
=7
0F
=8
!!linebreak:original
1D
2E/
2F\
=9
2G\
2A\
0D
1F
=10
1E
2.D/
4E/
1F
1C
=11
2C/
2.F\
4E/
2D/
1AA
0D
==
*-
!!title: @{OTL}, @{GTL}, ed. @{ENC}
!!!pag:
!!!GTL: Hymnbook D
!!!EFL: 
!!!YEM: Creative Commons CC/BY/NC/SA 4.0
!!!ENC: Marcin Konik
!!!END: 2015-0m-dd
!!!EED: Marcin Konik
!!!EEV: 
!!!ONB: Encoded in vim by Marcin Konik
!!!CharacterEncoding: utf-8
!!!RDF**kern: l=long note in original notation
!!!RDF**kern: i=editorial accidental
!!muse2ps: z14jc180F
!!!COM: Anonim
!!!CDT: [?]
!!!TXO: Polish
!!!ODT: 
!!!GTL: Hymnbook D
!!!ARL: Opactwo św. Wojciecha, Staniątki 
!!!voices:	1
